fonts/polwgo/uni002f.svg

<svg width="500" height="850" xmlns="http://www.w3.org/2000/svg" xmlns:svg="http://www.w3.org/2000/svg">
    <path d="M325 300v50h50l100-100v-50h-50z" />
    <path d="M225 400v50h50l100-100v-50h-50z" />
    <path d="M125 500v50h50l100-100v-50h-50z" />
    <path d="M25 600v50h50l100-100v-50h-50z" />
</svg>

<svg width="500" height="850" xmlns="http://www.w3.org/2000/svg" xmlns:svg="http://www.w3.org/2000/svg">
    <path
        d="M 425 200 L 325 300 L 225 400 L 125 500 L 25 600 L 25 650 L 75 650 L 175 550 L 275 450 L 375 350 L 475 250 L 475 200 L 425 200 z " />
</svg>
